src/images/Review/ArrowNext.svg

<svg width="27" height="16" fill="none" xmlns="http://www.w3.org/2000/svg"><path d="M1 7c-.55229 0-1 .44772-1 1s.44771 1 1 1V7Zm25.7071 1.70711c.3905-.39053.3905-1.02369 0-1.41422L20.3431.92893c-.3905-.39052-1.0236-.39052-1.4142 0-.3905.39053-.3905 1.02369 0 1.41422L24.5858 8l-5.6569 5.6569c-.3905.3905-.3905 1.0236 0 1.4142.3906.3905 1.0237.3905 1.4142 0l6.364-6.36399ZM1 9h25V7H1v2Z" fill="#FF6B09"/></svg>

<svg width="27" height="16" viewBox="0 0 27 16" fill="none" xmlns="http://www.w3.org/2000/svg">
<path d="M1 7C0.447715 7 0 7.44772 0 8C0 8.55228 0.447715 9 1 9V7ZM26.7071 8.70711C27.0976 8.31658 27.0976 7.68342 26.7071 7.29289L20.3431 0.928932C19.9526 0.538408 19.3195 0.538408 18.9289 0.928932C18.5384 1.31946 18.5384 1.95262 18.9289 2.34315L24.5858 8L18.9289 13.6569C18.5384 14.0474 18.5384 14.6805 18.9289 15.0711C19.3195 15.4616 19.9526 15.4616 20.3431 15.0711L26.7071 8.70711ZM1 9H26V7H1V9Z" fill="#FF6B09"/>
</svg>
